assets/img/braze_icons/heading-01.svg

<svg fill="none" height="24" viewBox="0 0 24 24" width="24" xmlns="http://www.w3.org/2000/svg"><path d="m4 3c-.55228 0-1 .44772-1 1s.44772 1 1 1h1v14h-1c-.55228 0-1 .4477-1 1s.44772 1 1 1h4c.55229 0 1-.4477 1-1s-.44771-1-1-1h-1v-6h10v6h-1c-.5523 0-1 .4477-1 1s.4477 1 1 1h4c.5523 0 1-.4477 1-1s-.4477-1-1-1h-1v-14h1c.5523 0 1-.44772 1-1s-.4477-1-1-1h-4c-.5523 0-1 .44772-1 1s.4477 1 1 1h1v6h-10v-6h1c.55229 0 1-.44772 1-1s-.44771-1-1-1z" fill="#801ed7"/></svg>

<svg width="24" height="24" viewBox="0 0 24 24" fill="none" xmlns="http://www.w3.org/2000/svg">
<path d="M4 3C3.44772 3 3 3.44772 3 4C3 4.55228 3.44772 5 4 5H5V19H4C3.44772 19 3 19.4477 3 20C3 20.5523 3.44772 21 4 21H8C8.55229 21 9 20.5523 9 20C9 19.4477 8.55229 19 8 19H7V13L17 13V19H16C15.4477 19 15 19.4477 15 20C15 20.5523 15.4477 21 16 21H20C20.5523 21 21 20.5523 21 20C21 19.4477 20.5523 19 20 19H19V5H20C20.5523 5 21 4.55228 21 4C21 3.44772 20.5523 3 20 3H16C15.4477 3 15 3.44772 15 4C15 4.55228 15.4477 5 16 5H17V11L7 11V5H8C8.55229 5 9 4.55228 9 4C9 3.44772 8.55229 3 8 3H4Z" fill="#801ED7"/>
</svg>
